icon-themes/breeze_svg/sd/res/foilh01.svg

<svg viewBox="0 0 71 57" xmlns="http://www.w3.org/2000/svg" xmlns:xlink="http://www.w3.org/1999/xlink"><linearGradient id="a" gradientTransform="matrix(1.05 0 0 1.0652174 -804.5 -967.71193)" gradientUnits="userSpaceOnUse" x1="798" x2="798" y1="958.21936" y2="912.21936"><stop offset="0" stop-color="#bdc3c7"/><stop offset="1" stop-color="#dadfe1"/></linearGradient><linearGradient id="b" gradientTransform="matrix(1.0576923 0 0 1.4137931 -.46154 -17.44828)" gradientUnits="userSpaceOnUse" x1="33.527275" x2="33.527275" y1="49.829273" y2="18.000004"><stop offset="0" stop-color="#5e6b78"/><stop offset="1" stop-color="#768492"/></linearGradient><linearGradient id="c" gradientUnits="userSpaceOnUse" x1="11" x2="54" y1="8" y2="49"><stop offset="0" stop-color="#383e51"/><stop offset="1" stop-color="#655c6f" stop-opacity="0"/></linearGradient><path d="m4 4v49h48.300781 14.699219v-49z" fill="url(#a)"/><path d="m4 4v1h63v-1z" fill="#fff" fill-opacity=".4"/><path d="m8 8v41h55v-41z" fill="url(#b)"/><path d="m63 8v41h-55l4 4h55v-41z" fill="url(#c)" opacity=".2"/></svg>

<svg xmlns="http://www.w3.org/2000/svg" viewBox="0 0 71 57">
  <defs
     id="defs4">
    <linearGradient
       inkscape:collect="always"
       id="linearGradient4300-2">
      <stop
         style="stop-color:#bdc3c7;stop-opacity:1"
         offset="0"
         id="stop4302-8" />
      <stop
         style="stop-color:#dadfe1;stop-opacity:1"
         offset="1"
         id="stop4304-0" />
    </linearGradient>
    <linearGradient
       inkscape:collect="always"
       xlink:href="#linearGradient4300-2"
       id="linearGradient4316"
       x1="798"
       y1="958.21936"
       x2="798"
       y2="912.21936"
       gradientUnits="userSpaceOnUse"
       gradientTransform="matrix(1.05,0,0,1.0652174,-804.5,-967.71193)" />
    <linearGradient
       inkscape:collect="always"
       id="linearGradient4300-7">
      <stop
         style="stop-color:#5e6b78;stop-opacity:1"
         offset="0"
         id="stop4302-2" />
      <stop
         style="stop-color:#768492;stop-opacity:1"
         offset="1"
         id="stop4304-4" />
    </linearGradient>
    <linearGradient
       gradientTransform="matrix(1.0576923,0,0,1.4137931,-0.46154,-17.44828)"
       gradientUnits="userSpaceOnUse"
       y2="18.000004"
       x2="33.527275"
       y1="49.829273"
       x1="33.527275"
       id="linearGradient4483"
       xlink:href="#linearGradient4300-7"
       inkscape:collect="always" />
    <linearGradient
       gradientUnits="userSpaceOnUse"
       y2="957.21936"
       x2="817"
       y1="916.21936"
       x1="774"
       id="linearGradient4173"
       xlink:href="#linearGradient4410"
       inkscape:collect="always"
       gradientTransform="translate(-763,-908.21936)" />
    <linearGradient
       inkscape:collect="always"
       id="linearGradient4410">
      <stop
         style="stop-color:#383e51;stop-opacity:1"
         offset="0"
         id="stop4412" />
      <stop
         style="stop-color:#655c6f;stop-opacity:0"
         offset="1"
         id="stop4414" />
    </linearGradient>
  </defs>
    <path
       style="fill:url(#linearGradient4316)"
       d="M 4 4 L 4 53 L 52.300781 53 L 67 53 L 67 4 L 4 4 z " />
    <path
       style="fill:#ffffff;fill-opacity:0.4"
       d="M 4 4 L 4 5 L 67 5 L 67 4 L 4 4 z "
	   />
    <path
       style="fill:url(#linearGradient4483)"
       d="M 8 8 L 8 49 L 63 49 L 63 8 L 8 8 z " />
    <path
       style="opacity:0.2;fill:url(#linearGradient4173)"
       d="M 63 8 L 63 49 L 8 49 L 12 53 L 67 53 L 67 12 L 63 8 z " />
</svg>
